; G-Code generated by Simplify3D(R) Version 4.0.0
; Sep 26, 2017 at 9:13:11 AM
; Settings Summary
;   processName,Process1
;   applyToModels,cube
;   profileName,Prusa Research Original Prusa i3 MK2 (modified)
;   profileVersion,2016-11-25 08:00:00
;   baseProfile,
;   printMaterial,PLA
;   printQuality,Medium
;   printExtruders,
;   extruderName,Primary Extruder
;   extruderToolheadNumber,0
;   extruderDiameter,0.4
;   extruderAutoWidth,1
;   extruderWidth,0.48
;   extrusionMultiplier,1
;   extruderUseRetract,1
;   extruderRetractionDistance,1.5
;   extruderExtraRestartDistance,0
;   extruderRetractionZLift,0
;   extruderRetractionSpeed,1800
;   extruderUseCoasting,1
;   extruderCoastingDistance,0.2
;   extruderUseWipe,1
;   extruderWipeDistance,2
;   primaryExtruder,0
;   layerHeight,0.15
;   topSolidLayers,3
;   bottomSolidLayers,3
;   perimeterOutlines,5
;   printPerimetersInsideOut,1
;   startPointOption,2
;   startPointOriginX,0
;   startPointOriginY,0
;   sequentialIslands,0
;   spiralVaseMode,0
;   firstLayerHeightPercentage,150
;   firstLayerWidthPercentage,170
;   firstLayerUnderspeed,0.5
;   useRaft,0
;   raftExtruder,0
;   raftTopLayers,1
;   raftBaseLayers,1
;   raftOffset,3
;   raftSeparationDistance,0.2
;   raftTopInfill,25
;   aboveRaftSpeedMultiplier,0.3
;   useSkirt,0
;   skirtExtruder,0
;   skirtLayers,1
;   skirtOutlines,3
;   skirtOffset,0
;   usePrimePillar,0
;   primePillarExtruder,999
;   primePillarWidth,12
;   primePillarLocation,7
;   primePillarSpeedMultiplier,1
;   useOozeShield,0
;   oozeShieldExtruder,999
;   oozeShieldOffset,2
;   oozeShieldOutlines,1
;   oozeShieldSidewallShape,1
;   oozeShieldSidewallAngle,30
;   oozeShieldSpeedMultiplier,1
;   infillExtruder,0
;   internalInfillPattern,Rectilinear
;   externalInfillPattern,Rectilinear
;   infillPercentage,100
;   outlineOverlapPercentage,20
;   infillExtrusionWidthPercentage,100
;   minInfillLength,5
;   infillLayerInterval,1
;   internalInfillAngles,45,-45
;   overlapInternalInfillAngles,0
;   externalInfillAngles,45,-45
;   generateSupport,0
;   supportExtruder,0
;   supportInfillPercentage,20
;   supportExtraInflation,0
;   supportBaseLayers,1
;   denseSupportExtruder,0
;   denseSupportLayers,0
;   denseSupportInfillPercentage,70
;   supportLayerInterval,1
;   supportHorizontalPartOffset,0.3
;   supportUpperSeparationLayers,1
;   supportLowerSeparationLayers,1
;   supportType,0
;   supportGridSpacing,4
;   maxOverhangAngle,45
;   supportAngles,0
;   temperatureName,Primary Extruder,Heated Bed
;   temperatureNumber,0,0
;   temperatureSetpointCount,1,1
;   temperatureSetpointLayers,1,1
;   temperatureSetpointTemperatures,200,60
;   temperatureStabilizeAtStartup,1,1
;   temperatureHeatedBed,0,1
;   temperatureRelayBetweenLayers,0,0
;   temperatureRelayBetweenLoops,0,0
;   fanLayers,1,2
;   fanSpeeds,0,100
;   blipFanToFullPower,0
;   adjustSpeedForCooling,1
;   minSpeedLayerTime,15
;   minCoolingSpeedSlowdown,20
;   increaseFanForCooling,0
;   minFanLayerTime,45
;   maxCoolingFanSpeed,100
;   increaseFanForBridging,0
;   bridgingFanSpeed,100
;   use5D,1
;   relativeEdistances,0
;   allowEaxisZeroing,1
;   independentExtruderAxes,0
;   includeM10123,0
;   stickySupport,1
;   applyToolheadOffsets,0
;   gcodeXoffset,0
;   gcodeYoffset,0
;   gcodeZoffset,0
;   overrideMachineDefinition,1
;   machineTypeOverride,0
;   strokeXoverride,250
;   strokeYoverride,210
;   strokeZoverride,200
;   originOffsetXoverride,0
;   originOffsetYoverride,0
;   originOffsetZoverride,0
;   homeXdirOverride,-1
;   homeYdirOverride,-1
;   homeZdirOverride,-1
;   flipXoverride,1
;   flipYoverride,-1
;   flipZoverride,1
;   toolheadOffsets,0,0|0,0|0,0|0,0|0,0|0,0
;   overrideFirmwareConfiguration,1
;   firmwareTypeOverride,RepRap (Marlin/Repetier/Sprinter)
;   GPXconfigOverride,r2
;   baudRateOverride,250000
;   overridePrinterModels,1
;   printerModelsOverride
;   startingGcode,M115 U3.0.7 ; use the latest firmware version,G28 W ; home all axes without mesh bed leveling,G80 ; run mesh bed leveling routine,G1 Y-3.0 F1000.0 ; prepare to prime,G92 E0 ; reset extrusion distance,G1 X60.0 E9.0  F1000.0 ; priming,G1 X100.0 E12.5  F1000.0 ; priming
;   layerChangeGcode,
;   retractionGcode,
;   toolChangeGcode,
;   endingGcode,M106 S0 ; turn off cooling fan,M104 S0 ; turn off extruder,M140 S0 ; turn off bed,G1 X0 Y200 ; part removal,M84 ; disable motors
;   exportFileFormat,gcode
;   celebration,0
;   celebrationSong,Random Song
;   postProcessing,
;   defaultSpeed,2400
;   outlineUnderspeed,0.8
;   solidInfillUnderspeed,0.8
;   supportUnderspeed,0.8
;   rapidXYspeed,4800
;   rapidZspeed,1000
;   minBridgingArea,50
;   bridgingExtraInflation,0
;   bridgingExtrusionMultiplier,1
;   bridgingSpeedMultiplier,1
;   useFixedBridgingAngle,0
;   fixedBridgingAngle,0
;   applyBridgingToPerimeters,0
;   filamentDiameters,1.75|1.75|1.75|1.75|1.75|1.75
;   filamentPricesPerKg,46|46|46|46|46|46
;   filamentDensities,1.25|1.25|1.25|1.25|1.25|1.25
;   useMinPrintHeight,0
;   minPrintHeight,0
;   useMaxPrintHeight,0
;   maxPrintHeight,0
;   useDiaphragm,0
;   diaphragmLayerInterval,20
;   robustSlicing,1
;   mergeAllIntoSolid,0
;   onlyRetractWhenCrossingOutline,1
;   retractBetweenLayers,1
;   useRetractionMinTravel,0
;   retractionMinTravel,3
;   retractWhileWiping,1
;   onlyWipeOutlines,1
;   avoidCrossingOutline,0
;   maxMovementDetourFactor,3
;   toolChangeRetractionDistance,12
;   toolChangeExtraRestartDistance,-0.5
;   toolChangeRetractionSpeed,600
;   externalThinWallType,0
;   internalThinWallType,2
;   thinWallAllowedOverlapPercentage,25
;   singleExtrusionMinLength,1
;   singleExtrusionMinPrintingWidthPercentage,50
;   singleExtrusionMaxPrintingWidthPercentage,200
;   singleExtrusionEndpointExtension,0.2
;   horizontalSizeCompensation,0
G90
M82
M106 S0
M140 S60
M190 S60
M104 S200 T0
M109 S200 T0
M115 U3.0.7 ; use the latest firmware version
G28 W ; home all axes without mesh bed leveling
G80 ; run mesh bed leveling routine
G1 Y-3.0 F1000.0 ; prepare to prime
G92 E0 ; reset extrusion distance
G1 X60.0 E9.0  F1000.0 ; priming
G1 X100.0 E12.5  F1000.0 ; priming
G92 E0
G1 E-1.5000 F1800
G1 Z0.225 F1000
; process Process1
; layer 1, Z = 0.225
T0
; tool H0.225 W0.816
; outer perimeter
G1 X124.908 Y104.908 F4800
G1 E0.0000 F540
G92 E0
G1 X125.092 Y104.908 E0.0140 F384
G1 X125.092 Y105.092 E0.0281
G1 X124.924 Y105.092 E0.0409
G1 X124.908 Y105.092 F384
G1 X124.908 Y104.908 F384
G92 E0
G1 X125.092 Y104.908 E-0.3750 F883
G1 X125.092 Y105.092 E-0.7500
G1 X124.908 Y105.092 E-1.1250
G1 X124.908 Y104.908 E-1.5000
; layer 2, Z = 0.375
M106 S255
; tool H0.150 W0.480
G1 X124.740 Y104.740 F4800
G1 Z0.375 F1000
G1 E0.0000 F1800
G92 E0
G1 X125.260 Y104.740 E0.0156 F384
G1 X125.260 Y105.260 E0.0311
G1 X124.740 Y105.260 E0.0467
G1 X124.740 Y104.940 E0.0563
G1 X124.740 Y104.740 F384
G92 E0
G1 X125.260 Y104.740 E-0.3900 F2400
G1 X125.260 Y105.260 E-0.7800
G1 X124.740 Y105.260 E-1.1700
G1 X124.740 Y104.820 E-1.5000
; layer 3, Z = 0.525
G1 X124.740 Y104.740 F4800
G1 Z0.525 F1000
G1 E0.0000 F1800
G92 E0
G1 X125.260 Y104.740 E0.0156 F384
G1 X125.260 Y105.260 E0.0311
G1 X124.740 Y105.260 E0.0467
G1 X124.740 Y104.940 E0.0563
G1 X124.740 Y104.740 F384
G92 E0
G1 X125.260 Y104.740 E-0.3900 F2400
G1 X125.260 Y105.260 E-0.7800
G1 X124.740 Y105.260 E-1.1700
G1 X124.740 Y104.820 E-1.5000
; layer 4, Z = 0.675
G1 X124.740 Y104.740 F4800
G1 Z0.675 F1000
G1 E0.0000 F1800
G92 E0
G1 X125.260 Y104.740 E0.0156 F384
G1 X125.260 Y105.260 E0.0311
G1 X124.740 Y105.260 E0.0467
G1 X124.740 Y104.940 E0.0563
G1 X124.740 Y104.740 F384
G92 E0
G1 X125.260 Y104.740 E-0.3900 F2400
G1 X125.260 Y105.260 E-0.7800
G1 X124.740 Y105.260 E-1.1700
G1 X124.740 Y104.820 E-1.5000
; layer 5, Z = 0.825
G1 X124.740 Y104.740 F4800
G1 Z0.825 F1000
G1 E0.0000 F1800
G92 E0
G1 X125.260 Y104.740 E0.0156 F384
G1 X125.260 Y105.260 E0.0311
G1 X124.740 Y105.260 E0.0467
G1 X124.740 Y104.940 E0.0563
G1 X124.740 Y104.740 F384
G92 E0
G1 X125.260 Y104.740 E-0.3900 F2400
G1 X125.260 Y105.260 E-0.7800
G1 X124.740 Y105.260 E-1.1700
G1 X124.740 Y104.820 E-1.5000
; layer 6, Z = 0.975
G1 X124.740 Y104.740 F4800
G1 Z0.975 F1000
G1 E0.0000 F1800
G92 E0
G1 X125.260 Y104.740 E0.0156 F384
G1 X125.260 Y105.260 E0.0311
G1 X124.740 Y105.260 E0.0467
G1 X124.740 Y104.940 E0.0563
G1 X124.740 Y104.740 F384
G92 E0
G1 X125.260 Y104.740 E-0.3900 F2400
G1 X125.260 Y105.260 E-0.7800
G1 X124.740 Y105.260 E-1.1700
G1 X124.740 Y104.820 E-1.5000
; layer end
M106 S0 ; turn off cooling fan
M104 S0 ; turn off extruder
M140 S0 ; turn off bed
G1 X0 Y200 ; part removal
M84 ; disable motors
; Build Summary
;   Build time: 0 hours 0 minutes
;   Filament length: 0.3 mm (0.00 m)
;   Plastic volume: 0.78 mm^3 (0.00 cc)
;   Plastic weight: 0.00 g (0.00 lb)
;   Material cost: 0.00
